X: 1
T:The Hag at the Churn  "Arranged by Terry Tully"
M:C
L:1/8
Q:80
C:Traditional Irish
S:Reel
K:HP
|: e{g}e{A}ed{g}eA{gAGAG}A2|
e{g}e{A}ed{g}eagd|
e{g}e{A}ed{g}eA{gAGAG}A2|  !
{g}Bc{gde}dcBc{gde}dB:| |:
{g}ea{g}afgagf|
{g}ea{g}ag{a}ed{g}Bd|  !
{g}ea{g}afgage|
{g}de{gde}dBGA{g}Bd:|
